X:1
T:Title
%%score ( 1 2 ) { 3 | 4 }
L:1/8
Q:1/4=100
M:6/8
K:Bb
V:1 treble nm="Grand Piano, Soprano"
V:2 treble 
V:3 bass nm="Choir Pad, Bass"
V:4 bass 
V:1
 [DF] [DF]2 [DF] [EG]2 | [DF][DF][DB]- [DB]/ z/ z [FB] | [FA]2 [FG] [FA]2 [EG] | %3
w: By~E.~A.~Hanchett * * *|||
 [DF]3- [DF]3/2 z/ [DF] | [DF]2 [DF] [EG]2 [DF] | [DF]2 [FB] [FB]2 [Fc] | [Fd]2 [FB] BA[=EB] | %7
w: ||||
 [Fc]3- [Fc]3/2 z/ [Fc] | [^Fd]2 [Fc] [GB]2 [FA] | c2 B [FA]2 [EG] | [EG]2 [DF] [DF]2 [Fd] | %11
w: ||||
 [Fc]3- [Fc]3/2 z/ [Fd] | [Ff]2 [Fe] [Fd]2 [Ec] | [DB]2 [FA] [EG]2 [EG] | [EG]2 [EF] [Fd]2 [Ec] | %15
w: ||||
 [DB]3- [DB]3/2 z/ [EG] | [DF][EG][DF] [DF][EG][EA] | [DB]3 [DB]2 [DA] | %18
w: |||
 [EG][EA][EG] [=EG][EA][EB] | [Fc]3- [Fc]3/2 z/ [Fc] | [Fd][Fd][Fd] [Fd][Fc][FB] | %21
w: |||
 [Gf][Ge][Ge] [Ge]2 [Ge] | [Fd][Ec][DB] E-[EG][EA] | [DB]6- | [DB]3 z3 |] %25
w: ||||
V:2
 x6 | x6 | x6 | x6 | x6 | x6 | z3 .=E3 | x6 | x6 | G3 z3 | x6 | x6 | x6 | x6 | x6 | x6 | x6 | x6 | %18
 x6 | x6 | x6 | x6 | z3 .F3 | x6 | x6 |] %25
V:3
 B, B,2 B, B,2 | B,B,F,- F,/ z/ z[K:treble] D | C2 B, C2 A, | B,3- B,3/2 z/ B, | B,2 B, B,2 B, | %5
 B,2[K:treble] D D2 D | B,2 D C2 C | A,3- A,3/2 z/ A, | A,2 A, D2 C | B,3 B,2 B, | B,2 B, B,2 B, | %11
 A,3- A,3/2 z/ B, | D2 C B,2 B, | B,3 B,2 B, | A,2 A, A,2 A, | B,3- B,3/2 z/ B, | B,3 B,2 B, | %17
 B,2 B, B,B,B, | B,3 C2 C | A,A,A, A,2 A, | B,B,B, B,A,B, | B,B,B, B,2 B, | B,2 B, A,G,F, | F,6- | %24
 F,3 z3 |] %25
V:4
 B,, B,,2 B,, B,,2 | B,,B,,B,,- B,,/ z/ z B,, | F,2 F, F,2 F, | B,,3- B,,3/2 z/ B,, | %4
 B,,2 B,, B,,2 B,, | B,,2 B,, B,,2 B,, | z2 B, G,2 G, | F,3- F,3/2 z/ F, | D,2 D, D,2 D, | %9
 E,3 E,2 E, | B,,2 B,, B,,2 B,, | F,6 | B,2 B, z2 B,, | B,,2 D, E,2 E, | F,2 F, F,2 F, | %15
 B,,3- B,,3/2 z/ B,, | B,,3 B,,2 B,, | B,,2 B,, B,,B,,B,, | E,3 C,2 C, | F,F,F, F,2 F, | %20
 B,,B,,B,, B,,C,D, | E,E,E, E,2 E, | F,2 F, .F,3 | B,,6- | B,,3 z3 |] %25

